client/resources/iconsets/breeze/src/svg/16x16/icon_appt_meeting_outofdate.svg

<svg xmlns="http://www.w3.org/2000/svg" width="16" height="16" viewBox="0 0 16 16">
  <path
     style="fill:#6d6d70"
     d="M 3.6796875,1 C 3.3026272,1 3,1.3026272 3,1.6796875 L 3,2 2,2 C 1.446,2 1,2.446 1,3 l 0,11 c 0,0.554 0.446,1 1,1 l 7.3378906,0 C 9.2848746,14.844131 9.25,14.679325 9.25,14.5 c 0,-0.719348 0.3018355,-1.299851 0.767578,-1.769531 L 3,12.730469 3,5 13,5 13,8.25 c 0.871854,0 1.627254,0.5129837 2,1.2460938 L 15,3 C 15,2.446 14.554,2 14,2 L 13,2 13,1.6796875 C 13,1.3026272 12.697374,1 12.320312,1 L 10.679688,1 C 10.302626,1 10,1.3026272 10,1.6796875 L 10,2 6,2 6,1.6796875 C 6,1.3026272 5.6973728,1 5.3203125,1 Z M 5,6 C 4.446,6 4,6.446 4,7 4,7.554 4.446,8 5,8 5.554,8 6,7.554 6,7 6,6.446 5.554,6 5,6 Z M 8,6 C 7.446,6 7,6.446 7,7 7,7.554 7.446,8 8,8 8.554,8 9,7.554 9,7 9,6.446 8.554,6 8,6 Z m 3,0 c -0.554,0 -1,0.446 -1,1 0,0.554 0.446,1 1,1 0.554,0 1,-0.446 1,-1 C 12,6.446 11.554,6 11,6 Z M 5,9 C 4.446,9 4,9.446 4,10 4,10.554 4.446,11 5,11 5.554,11 6,10.554 6,10 6,9.446 5.554,9 5,9 Z M 8,9 C 7.446,9 7,9.446 7,10 7,10.554 7.446,11 8,11 8.554,11 9,10.554 9,10 9,9.446 8.554,9 8,9 Z"
     id="path4" />
  <path
     style="opacity:1;fill:#f03d21;fill-opacity:1;fill-rule:nonzero;stroke:none;stroke-width:1;stroke-linecap:round;stroke-linejoin:round;stroke-miterlimit:4;stroke-dasharray:none;stroke-opacity:1"
     d="M 13 9 A 1.5 1.5 0 0 0 11.5 10.5 A 1.5 1.5 0 0 0 13 12 A 1.5 1.5 0 0 0 14.5 10.5 A 1.5 1.5 0 0 0 13 9 z M 13 12 A 3 2.5 0 0 0 10 14.5 A 3 1.5 0 0 0 13 16 A 3 1.5 0 0 0 16 14.5 A 3 2.5 0 0 0 13 12 z "
     id="path4167" />
</svg>

<svg xmlns="http://www.w3.org/2000/svg" width="16" height="16"><path d="M3.68 1a.68.68 0 0 0-.68.68V2H2a1 1 0 0 0-1 1v11a1 1 0 0 0 1 1h7.338c-.053-.156-.088-.321-.088-.5 0-.719.302-1.3.768-1.77H3V5h10v3.25c.872 0 1.627.513 2 1.246V3a1 1 0 0 0-1-1h-1v-.32a.68.68 0 0 0-.68-.68H10.68a.68.68 0 0 0-.68.68V2H6v-.32A.68.68 0 0 0 5.32 1zM5 6a1 1 0 1 0 0 2 1 1 0 1 0 0-2zm3 0a1 1 0 1 0 0 2 1 1 0 1 0 0-2zm3 0a1 1 0 1 0 0 2 1 1 0 1 0 0-2zM5 9a1 1 0 1 0 0 2 1 1 0 1 0 0-2zm3 0a1 1 0 1 0 0 2 1 1 0 1 0 0-2z" fill="#6d6d70"/><path d="M13 9a1.5 1.5 0 1 0 0 3 1.5 1.5 0 1 0 0-3zm0 3a3 2.5 0 0 0-3 2.5 3 1.5 0 0 0 3 1.5 3 1.5 0 0 0 3-1.5 3 2.5 0 0 0-3-2.5z" fill="#f03d21"/></svg>
